usr/share/icons/biglinux-icons-material-dark/16/actions/mode1.svg

<svg xmlns="http://www.w3.org/2000/svg" viewBox="0 0 16 16">
<defs id="defs3051">
<style id="current-color-scheme" type="text/css">
.ColorScheme-Text{color:#dedede}.ColorScheme-Highlight{color:#3daee9}
</style>
</defs>
<path d="M2 2v1h5V2zm7 0v1h5V2zM2 5v1h5V5zm7 0v1h5V5zM7 7 5 8.5 7 10V9h5c.554 0 1 .446 1 1h1c0-1.108-.892-2-2-2H7z" class="ColorScheme-Text" style="fill:currentColor;fill-opacity:1;stroke:none"/>
<path d="m12 11 2 1.5-2 1.5v-1H7c-1.108 0-2-.892-2-2h1c0 .554.446 1 1 1h5z" class="ColorScheme-Highlight" style="fill:currentColor;fill-opacity:1;stroke:none"/>
</svg>

<svg xmlns="http://www.w3.org/2000/svg" viewBox="0 0 16 16">
  <defs id="defs3051">
    <style type="text/css" id="current-color-scheme">
      .ColorScheme-Text {
        color:#dedede;
      }
      .ColorScheme-Highlight {
        color:#3daee9;
      }
      </style>
  </defs>
  <path 
        style="fill:currentColor;fill-opacity:1;stroke:none"
        d="M 2 2 L 2 3 L 7 3 L 7 2 L 2 2 z M 9 2 L 9 3 L 14 3 L 14 2 L 9 2 z M 2 5 L 2 6 L 7 6 L 7 5 L 2 5 z M 9 5 L 9 6 L 14 6 L 14 5 L 9 5 z M 7 7 L 5 8.5 L 7 10 L 7 9 L 12 9 C 12.554 9 13 9.446 13 10 L 14 10 C 14 8.892 13.108 8 12 8 L 7 8 L 7 7 z "
        class="ColorScheme-Text"
        />
  <path
        style="fill:currentColor;fill-opacity:1;stroke:none"
        d="m 12,11 2,1.5 -2,1.5 0,-1 -5,0 C 5.892,13 5,12.108 5,11 l 1,0 c 0,0.554 0.446,1 1,1 l 5,0 z"
        class="ColorScheme-Highlight"
      />
</svg>
